archdroid-icon-theme/Archdroid-KellyGreen/devices/scalable/gnome-dev-trash-empty.svg

<?xml version="1.0" encoding="UTF-8" standalone="no"?>
<svg
   xmlns:dc="http://purl.org/dc/elements/1.1/"
   xmlns:cc="http://creativecommons.org/ns#"
   xmlns:rdf="http://www.w3.org/1999/02/22-rdf-syntax-ns#"
   xmlns:svg="http://www.w3.org/2000/svg"
   xmlns="http://www.w3.org/2000/svg"
   xmlns:sodipodi="http://sodipodi.sourceforge.net/DTD/sodipodi-0.dtd"
   xmlns:inkscape="http://www.inkscape.org/namespaces/inkscape"
   fill="#00C853"
   width="48"
   height="48"
   viewBox="0 0 48 48"
   id="svg2"
   version="1.1"
   inkscape:version="0.91 r13725"
   sodipodi:docname="user-trash.svg">
  <metadata
     id="metadata10">
    <rdf:RDF>
      <cc:Work
         rdf:about="">
        <dc:format>image/svg+xml</dc:format>
        <dc:type
           rdf:resource="http://purl.org/dc/dcmitype/StillImage" />
        <dc:title></dc:title>
      </cc:Work>
    </rdf:RDF>
  </metadata>
  <defs
     id="defs8" />
  <sodipodi:namedview
     pagecolor="#ffffff"
     bordercolor="#666666"
     borderopacity="1"
     objecttolerance="10"
     gridtolerance="10"
     guidetolerance="10"
     inkscape:pageopacity="0"
     inkscape:pageshadow="2"
     inkscape:window-width="1366"
     inkscape:window-height="713"
     id="namedview6"
     showgrid="false"
     inkscape:zoom="5.6568542"
     inkscape:cx="3.6214553"
     inkscape:cy="31.806947"
     inkscape:window-x="0"
     inkscape:window-y="30"
     inkscape:window-maximized="1"
     inkscape:current-layer="svg2"
     inkscape:snap-bbox="true"
     inkscape:bbox-paths="true"
     inkscape:bbox-nodes="true" />
  <path
     style="color:#000000;font-style:normal;font-variant:normal;font-weight:normal;font-stretch:normal;font-size:medium;line-height:normal;font-family:sans-serif;text-indent:0;text-align:start;text-decoration:none;text-decoration-line:none;text-decoration-style:solid;text-decoration-color:#000000;letter-spacing:normal;word-spacing:normal;text-transform:none;direction:ltr;block-progression:tb;writing-mode:lr-tb;baseline-shift:baseline;text-anchor:start;white-space:normal;clip-rule:nonzero;display:inline;overflow:visible;visibility:visible;opacity:1;isolation:auto;mix-blend-mode:normal;color-interpolation:sRGB;color-interpolation-filters:linearRGB;solid-color:#000000;solid-opacity:1;fill:#00C853;fill-opacity:1;fill-rule:nonzero;stroke:none;stroke-width:4;stroke-linecap:butt;stroke-linejoin:miter;stroke-miterlimit:4;stroke-dasharray:none;stroke-dashoffset:0;stroke-opacity:1;color-rendering:auto;image-rendering:auto;shape-rendering:auto;text-rendering:auto;enable-background:accumulate"
     mask="none"
     clip-path="none"
     d="M 18.171875 4 L 16.171875 6 L 8 6 L 8 14 L 10 14 L 10 38 C 10 41.28994 12.71006 44 16 44 L 32 44 C 35.28994 44 38 41.28994 38 38 L 38 14 L 40 14 L 40 6 L 38 6 L 31.828125 6 L 29.828125 4 L 18.171875 4 z M 19.828125 8 L 28.171875 8 L 29.335938 9.1640625 L 36.242188 9.1640625 L 36.242188 12.166016 L 11.751953 12.166016 L 11.751953 9.1640625 L 18.664062 9.1640625 L 19.828125 8 z M 14 16 L 34 16 L 34 38 C 34 39.13006 33.13006 40 32 40 L 16 40 C 14.86994 40 14 39.13006 14 38 L 14 16 z "
     id="path4" />
  <path
     inkscape:connector-curvature="0"
     style="opacity:1;fill:#ffffff;fill-opacity:1;fill-rule:evenodd;stroke:none;stroke-width:2.27718687;stroke-miterlimit:4;stroke-dasharray:none;stroke-opacity:1"
     d="m -32.999691,23.727576 0,3.001953 24.4902362,0 0,-3.001953 -24.4902362,0 z"
     id="rect4200-0-7" />
</svg>

<svg xmlns="http://www.w3.org/2000/svg" fill="#00C853" viewBox="0 0 48 48"><path d="m18.17 4l-2 2h-8.172v8h2v24c0 3.29 2.71 6 6 6h16c3.29 0 6-2.71 6-6v-24h2v-8h-2-6.172l-2-2h-11.656m1.656 4h8.344l1.164 1.164h6.906v3h-24.49v-3h6.912l1.164-1.164m-5.828 8h20v22c0 1.13-.87 2-2 2h-16c-1.13 0-2-.87-2-2v-22" shape-rendering="auto" mix-blend-mode="normal" color-interpolation-filters="linearRGB" isolation="auto" white-space="normal" solid-opacity="1" image-rendering="auto" solid-color="#000000" color="#000" color-rendering="auto" color-interpolation="sRGB"/></svg>
